Flat Remix Dark/mimetypes/scalable/application-x-cd-image.svg

<svg xmlns="http://www.w3.org/2000/svg" width="48" height="48" version="1.1" viewBox="0 0 48 48">
 <path style="fill:#e9e9e9;stroke-width:0.25;stroke:#d4d4d4" d="M 24,4 C 12.954545,4 4,12.954546 4,24 4,35.045455 12.954545,44 24,44 35.045455,44 44,35.045455 44,24 44,12.954546 35.045455,4 24,4 Z m 0,14.545455 c 3.012727,0 5.454545,2.441818 5.454545,5.454545 0,3.012727 -2.441818,5.454545 -5.454545,5.454545 -3.012727,0 -5.454545,-2.441818 -5.454545,-5.454545 0,-3.012727 2.441818,-5.454545 5.454545,-5.454545 z"/>
 <path style="fill:#ffffff;stroke:#e7e7e7;stroke-width:0.44277275" d="m 24,15.461058 c -4.716017,0 -8.538942,3.822925 -8.538942,8.538942 0,4.716017 3.822925,8.538942 8.538942,8.538942 4.716017,0 8.538942,-3.822925 8.538942,-8.538942 0,-4.716017 -3.822925,-8.538942 -8.538942,-8.538942 z m 0,4.007439 c 2.50236,0 4.531503,2.029143 4.531503,4.531503 0,2.50236 -2.029143,4.531503 -4.531503,4.531503 -2.50236,0 -4.531503,-2.029143 -4.531503,-4.531503 0,-2.50236 2.029143,-4.531503 4.531503,-4.531503 z"/>
</svg>

<svg xmlns="http://www.w3.org/2000/svg" width="36pt" height="36pt" version="1.1" viewBox="0 0 36 36">
 <g>
  <path style="fill:rgb(91.372549%,91.372549%,91.372549%);stroke-width:0.25;stroke:rgb(83.137255%,83.137255%,83.137255%)" d="M 24 4 C 12.953125 4 4 12.953125 4 24 C 4 35.046875 12.953125 44 24 44 C 35.046875 44 44 35.046875 44 24 C 44 12.953125 35.046875 4 24 4 Z M 24 18.546875 C 27.010417 18.546875 29.453125 20.989583 29.453125 24 C 29.453125 27.010417 27.010417 29.453125 24 29.453125 C 20.989583 29.453125 18.546875 27.010417 18.546875 24 C 18.546875 20.989583 20.989583 18.546875 24 18.546875 Z M 24 18.546875" transform="matrix(0.75,0,0,0.75,0,0)"/>
  <path style="fill:rgb(100%,100%,100%);stroke-width:0.442773;stroke:rgb(90.588235%,90.588235%,90.588235%)" d="M 24 15.463542 C 19.286458 15.463542 15.463542 19.286458 15.463542 24 C 15.463542 28.713542 19.286458 32.536458 24 32.536458 C 28.713542 32.536458 32.536458 28.713542 32.536458 24 C 32.536458 19.286458 28.713542 15.463542 24 15.463542 Z M 24 19.46875 C 26.5 19.46875 28.53125 21.5 28.53125 24 C 28.53125 26.5 26.5 28.53125 24 28.53125 C 21.5 28.53125 19.46875 26.5 19.46875 24 C 19.46875 21.5 21.5 19.46875 24 19.46875 Z M 24 19.46875" transform="matrix(0.75,0,0,0.75,0,0)"/>
 </g>
</svg>
